X:1
T:Stephenson, LMD
T:Stephenson, LMD
T:Joseph Shellenberger Shoemaker, 1902
T:Public Domain Courtesy of the Cyber Hymnal™
C:Joseph Shellenberger Shoemaker, 1902
Z:Public Domain
Z:Courtesy of the Cyber Hymnal™
%%score ( 1 2 ) ( 3 4 )
L:1/8
Q:1/4=145
M:4/4
K:G
V:1 treble 
V:2 treble 
V:3 bass 
V:4 bass 
V:1
 D4 [DG]2 [DA]2 | [GB]4 G4 | [Fc]2 [GB]2 [FA]4 | D4 [DF]2 [DG]2 | [FA]4 [Ec]4 | [DB]2 [FA]2 G4 | %6
 D4 [DG]2 [DA]2 | [GB]4 G4 | [Fc]2 [GB]2 [FA]4 | D4 [DF]2 [DG]2 | [FA]4 [Ec]4 | %11
 [DB]2 [FA]2 G4!fine! | [Gd]4 [Gd]2 [Fd]2 | [Gd]4 [GB]4 | [Ge]2 [^Gd]2 [Ac]4 | [Fc]4 [Fc]2 [Gc]2 | %16
 [Ac]4 [FA]4 | [Gd]2 [Fc]2 [GB]4!D.C.! |] %18
V:2
 D4 x4 | x4 G4 | x8 | D4 x4 | x8 | x4 G4 | D4 x4 | x4 G4 | x8 | D4 x4 | x8 | x4 G4 | x8 | x8 | x8 | %15
 x8 | x8 | x8 |] %18
V:3
 [G,B,]4 [G,B,]2 [G,C]2 | [G,D]4 [B,D]4 | [A,D]2 [G,D]2 [D,C]4 | [D,F,]4 [D,A,]2 [D,B,]2 | %4
 C4 [D,F,]4 | G,2 [D,C]2 [G,,G,B,]4 | [G,B,]4 [G,B,]2 [G,C]2 | [G,D]4 [B,D]4 | %8
 [A,D]2 [G,D]2 [D,C]4 | [D,F,]4 [D,A,]2 [D,B,]2 | C4 [D,F,]4 | G,2 [D,C]2 [G,,G,B,]4 | %12
 [G,B,]4 [G,B,]2 [A,C]2 | [B,D]4 [G,D]4 | [CE]2 [B,E]2 [A,E]4 | [A,D]4 [A,D]2 [G,D]2 | %16
 [F,D]4 [D,D]4 | [B,D]2 [A,D]2 [G,D]4 |] %18
V:4
 x8 | x8 | x8 | x8 | x8 | G,2 x6 | x8 | x8 | x8 | x8 | x8 | G,2 x6 | x8 | x8 | x8 | x8 | x8 | x8 |] %18

